packages/icons/svg/Fill/bell.svg

<svg width="24" height="24" viewBox="0 0 24 24" fill="none" xmlns="http://www.w3.org/2000/svg">
<g id="Icon/Fill/bell">
<path id="Mask" fill-rule="evenodd" clip-rule="evenodd" d="M14.0001 18.3413C14.0001 19.2403 13.0841 20.0003 12.0001 20.0003C10.9161 20.0003 10.0001 19.2403 10.0001 18.3413V18.0003H14.0001V18.3413ZM20.5211 15.2073L18.7201 13.4043V8.93632C18.7201 5.45532 16.2181 2.49932 12.8991 2.05932C10.9781 1.80432 9.03809 2.39032 7.58309 3.66632C6.11909 4.94832 5.28009 6.79332 5.28009 8.72732L5.27909 13.4043L3.47909 15.2083C3.01009 15.6773 2.87109 16.3773 3.12509 16.9903C3.38009 17.6033 3.97309 18.0003 4.63709 18.0003H8.00009V18.3413C8.00009 20.3593 9.79409 22.0003 12.0001 22.0003C14.2061 22.0003 16.0001 20.3593 16.0001 18.3413V18.0003H19.3621C20.0261 18.0003 20.6191 17.6043 20.8731 16.9903C21.1281 16.3773 20.9891 15.6773 20.5211 15.2073Z" fill="#000000"/>
</g>
</svg>

<svg fill="none" height="24" viewBox="0 0 24 24" width="24" xmlns="http://www.w3.org/2000/svg"><path clip-rule="evenodd" d="m14 18.3412c0 .899-.916 1.659-2 1.659s-2-.76-2-1.659v-.341h4zm6.521-3.1339-1.801-1.803v-4.46804c0-3.481-2.502-6.437-5.821-6.877-1.921-.255-3.86101.331-5.31601 1.607-1.464 1.282-2.303 3.127-2.303 5.061l-.001 4.67704-1.8 1.804c-.469.469-.608 1.169-.354 1.782.255.613.848 1.01 1.512 1.01h3.363v.341c0 2.018 1.794 3.659 4.00001 3.659 2.206 0 4-1.641 4-3.659v-.341h3.362c.664 0 1.257-.396 1.511-1.01.255-.613.116-1.313-.352-1.783z" fill="#6b7280" fill-rule="evenodd"/></svg>
